packages/icons/svg/Outline/color-palette.svg

<svg width="24" height="24" viewBox="0 0 24 24" fill="none" xmlns="http://www.w3.org/2000/svg">
<g id="Icon/Outline/color-palette">
<path id="Mask" fill-rule="evenodd" clip-rule="evenodd" d="M10.5 6.5C10.5 5.672 11.172 5 12 5C12.828 5 13.5 5.672 13.5 6.5C13.5 7.328 12.828 8 12 8C11.172 8 10.5 7.328 10.5 6.5ZM14.701 9.2502C14.287 8.5332 14.533 7.6152 15.25 7.2012C15.968 6.7872 16.885 7.0332 17.299 7.7502C17.713 8.4682 17.467 9.3852 16.75 9.7992C16.032 10.2132 15.115 9.9682 14.701 9.2502ZM8.74999 7.2012C8.03299 6.7872 7.11499 7.0332 6.70099 7.7502C6.28699 8.4682 6.53299 9.3852 7.24999 9.7992C7.96799 10.2132 8.88499 9.9682 9.29899 9.2502C9.71299 8.5332 9.46799 7.6152 8.74999 7.2012ZM5.75709 13.3388C5.29309 12.6528 5.47409 11.7198 6.16109 11.2568C6.84809 10.7928 7.78009 10.9748 8.24309 11.6608C8.70709 12.3478 8.52509 13.2798 7.83909 13.7428C7.15209 14.2068 6.22009 14.0258 5.75709 13.3388ZM15.8809 15.001H14.2309C12.8519 15.001 11.7309 16.122 11.7309 17.501C11.7309 18.107 11.9549 18.694 12.3619 19.154C12.4859 19.294 12.5269 19.459 12.4829 19.642C12.4339 19.847 12.1979 19.98 11.8889 20C9.60589 19.969 7.43889 18.958 5.94289 17.227C4.42789 15.472 3.76389 13.223 4.07389 10.895C4.58489 7.062 8.03189 4.033 11.9229 4H11.9979C14.3549 4 16.5759 4.9 18.1049 6.478C19.3929 7.807 20.0649 9.502 19.9949 11.25C19.9159 13.248 17.9929 15.001 15.8809 15.001ZM19.5399 5.085C17.6169 3.101 14.8149 1.993 11.9059 2H11.9049C6.96089 2.042 2.74089 5.752 2.09189 10.631C1.70989 13.491 2.56289 16.372 4.42989 18.534C6.29789 20.698 9.00689 21.961 11.8609 22H11.8989C13.0989 22 14.1569 21.213 14.4259 20.114C14.6249 19.292 14.4179 18.458 13.8589 17.826C13.7769 17.735 13.7309 17.616 13.7309 17.501C13.7309 17.226 13.9549 17.001 14.2309 17.001H15.8809C19.0729 17.001 21.8719 14.403 21.9929 11.329C22.0849 9.029 21.2139 6.812 19.5399 5.085Z" fill="#000000"/>
</g>
</svg>

<svg fill="none" height="24" viewBox="0 0 24 24" width="24" xmlns="http://www.w3.org/2000/svg"><path clip-rule="evenodd" d="m10.5 6.50003c0-.828.672-1.5 1.5-1.5s1.5.672 1.5 1.5-.672 1.5-1.5 1.5-1.5-.672-1.5-1.5zm4.201 2.75027c-.414-.717-.168-1.635.549-2.049.718-.414 1.635-.168 2.049.549.414.718.168 1.635-.549 2.049-.718.414-1.635.169-2.049-.549zm-5.95095-2.049c-.717-.414-1.635-.168-2.049.549-.414.718-.168 1.635.549 2.049.718.414 1.635.169 2.049-.549.414-.717.169-1.635-.549-2.049zm-2.99293 6.1375c-.464-.686-.283-1.619.404-2.082.687-.464 1.619-.282 2.082.404.464.687.282 1.619-.404 2.082-.687.464-1.619.283-2.082-.404zm10.12378 1.6623h-1.65c-1.379 0-2.5 1.121-2.5 2.5 0 .606.224 1.193.631 1.653.124.14.165.305.121.488-.049.205-.285.338-.594.358-2.28304-.031-4.45004-1.042-5.94604-2.773-1.515-1.755-2.179-4.004-1.869-6.332.511-3.833 3.958-6.862 7.84904-6.895h.075c2.357 0 4.578.9 6.107 2.478 1.288 1.329 1.96 3.024 1.89 4.772-.079 1.998-2.002 3.751-4.114 3.751zm3.659-9.91607c-1.923-1.984-4.725-3.092-7.634-3.085h-.001c-4.94401.042-9.16401 3.752-9.81301 8.63097-.382 2.86.471 5.741 2.338 7.903 1.868 2.164 4.577 3.427 7.43101 3.466h.038c1.2 0 2.258-.787 2.527-1.886.199-.822-.008-1.656-.567-2.288-.082-.091-.128-.21-.128-.325 0-.275.224-.5.5-.5h1.65c3.192 0 5.991-2.598 6.112-5.672.092-2.29997-.779-4.51697-2.453-6.24397z" fill="#6b7280" fill-rule="evenodd"/></svg>
